usr/share/icons/biglinux-icons-material/22/actions/node-type-symmetric.svg

<svg xmlns="http://www.w3.org/2000/svg" viewBox="0 0 22 22"><path d="M1 2a10 15 0 0 0 9 14.91v-1.004A9 14 0 0 1 2 2H1zm19 0a9 14 0 0 1-8 13.896v1.03A10 15 0 0 0 21 2h-1zM1 15v3h3v-1h1v-1H4v-1H1zm17 0v1h-1v1h1v1h3v-3h-3zM2 16h1v1H2v-1zm4 0v1h1v-1H6zm9 0v1h1v-1h-1zm4 0h1v1h-1v-1z" style="fill:currentColor;fill-opacity:1;stroke:none;color:#dedede"/><path d="m11 13-3 5h6l-3-5zm0 2 1 2h-2l1-2z" style="fill:currentColor;fill-opacity:1;stroke:none;color:#3daee9"/></svg>

<svg xmlns="http://www.w3.org/2000/svg" viewBox="0 0 22 22">
  <defs id="defs3051">
    <style type="text/css" id="current-color-scheme">
      .ColorScheme-Text {
        color:#dedede;
      }
      .ColorScheme-Highlight {
        color:#3daee9;
      }
      </style>
  </defs>
 <path 
     style="fill:currentColor;fill-opacity:1;stroke:none" 
     d="M 1 2 A 10 15 0 0 0 10 16.910156 L 10 16 L 10 15.90625 A 9 14 0 0 1 2 2 L 1 2 z M 20 2 A 9 14 0 0 1 12 15.896484 L 12 16 L 12 16.925781 A 10 15 0 0 0 21 2 L 20 2 z M 1 15 L 1 18 L 4 18 L 4 17 L 5 17 L 5 16 L 4 16 L 4 15 L 1 15 z M 18 15 L 18 16 L 17 16 L 17 17 L 18 17 L 18 18 L 21 18 L 21 15 L 18 15 z M 2 16 L 3 16 L 3 17 L 2 17 L 2 16 z M 6 16 L 6 17 L 7 17 L 7 16 L 6 16 z M 15 16 L 15 17 L 16 17 L 16 16 L 15 16 z M 19 16 L 20 16 L 20 17 L 19 17 L 19 16 z "
     class="ColorScheme-Text"
     />
 <path 
     style="fill:currentColor;fill-opacity:1;stroke:none" 
     d="M 11 13 L 8 18 L 14 18 L 11 13 z M 11 15 L 12 17 L 10 17 L 11 15 z "
     class="ColorScheme-Highlight"
     />
</svg>
